client/public/assets/icons/action/new_custom31.svg

<?xml version="1.0"?><svg xmlns="http://www.w3.org/2000/svg" width="52" height="52" viewBox="0 0 52 52"><path fill="#fff" d="m46.4 20.7l-3.9-12c-0.7-2.2-2.9-3.7-5.3-3.7h-22.4c-2.4 0-4.6 1.5-5.4 3.7l-3.8 12c-2.1 0.6-3.6 2.3-3.6 4.5v9.3c0 2 1.4 3.7 3.2 4.4v6.5c0 0.9 0.7 1.6 1.6 1.6h6.4c0.9 0 1.6-0.7 1.6-1.6v-6.2h22.4v6.2c0 0.9 0.7 1.6 1.6 1.6h6.4c0.9 0 1.6-0.7 1.6-1.6v-6.4c1.8-0.6 3.2-2.3 3.2-4.4v-9.3c0-2.3-1.5-4-3.6-4.6z m-36.4 13.1c-2.2 0-4-1.7-4-3.9s1.8-3.9 4-3.9 4 1.7 4 3.9-1.8 3.9-4 3.9z m17.6-13.2h-15.8c-0.6 0-1-0.5-0.8-1l3-9.3c0.1-0.3 0.4-0.5 0.7-0.5h22.4c0.3 0 0.6 0.2 0.7 0.5l3 9.4c0.2 0.5-0.2 1-0.8 1h-12.4z m13.6 13.2c-2.2 0-4-1.7-4-3.9s1.8-3.9 4-3.9 4 1.7 4 3.9-1.8 3.9-4 3.9z"></path></svg>

<?xml version="1.0" encoding="utf-8"?>
<!-- Generator: Adobe Illustrator 18.1.1, SVG Export Plug-In . SVG Version: 6.00 Build 0)  -->
<svg version="1.1" id="Layer_1" xmlns="http://www.w3.org/2000/svg" xmlns:xlink="http://www.w3.org/1999/xlink" x="0px" y="0px"
	 width="52px" height="52px" viewBox="0 0 52 52" enable-background="new 0 0 52 52" xml:space="preserve">
<path fill="#FFFFFF" d="M46.4,20.7l-3.9-12C41.8,6.5,39.6,5,37.2,5h-9.6H14.8c-2.4,0-4.6,1.5-5.4,3.7l-3.8,12C3.5,21.3,2,23,2,25.2
	v9.3c0,2,1.4,3.7,3.2,4.4v6.5c0,0.9,0.7,1.6,1.6,1.6h6.4c0.9,0,1.6-0.7,1.6-1.6v-6.2h12.8h9.6v6.2c0,0.9,0.7,1.6,1.6,1.6h6.4
	c0.9,0,1.6-0.7,1.6-1.6V39c1.8-0.6,3.2-2.3,3.2-4.4v-9.3C50,23,48.5,21.3,46.4,20.7z M10,33.8c-2.2,0-4-1.7-4-3.9S7.8,26,10,26
	s4,1.7,4,3.9S12.2,33.8,10,33.8z M27.6,20.6H11.8c-0.6,0-1-0.5-0.8-1l3-9.3c0.1-0.3,0.4-0.5,0.7-0.5h12.8h9.6c0.3,0,0.6,0.2,0.7,0.5
	l3,9.4c0.2,0.5-0.2,1-0.8,1H27.6z M41.2,33.8c-2.2,0-4-1.7-4-3.9s1.8-3.9,4-3.9s4,1.7,4,3.9S43.4,33.8,41.2,33.8z"/>
</svg>
